packages/ui-icons/svg/Line/skype.svg

<svg viewBox="0 0 1920 1920" version="1.1" xmlns="http://www.w3.org/2000/svg">
    <path d="M1363.84376,1807.05882 C1290.65788,1807.05882 1218.03671,1789.10118 1153.88612,1755.21882 L1136.60612,1745.95765 L1117.40612,1749.45882 C1068.50259,1758.38118 1018.80847,1762.78588 969.566118,1762.78588 C525.481412,1762.78588 164.295529,1406.90824 164.295529,969.374118 C164.295529,915.614118 169.716706,861.967059 180.446118,810.127059 L184.963765,788.668235 L173.669647,769.807059 C133.914353,702.832941 112.907294,626.597647 112.907294,549.232941 C112.907294,308.668235 311.796706,112.941176 556.314353,112.941176 C640.116706,112.941176 721.773176,136.094118 792.474353,180.028235 L810.657882,191.322353 L831.777882,187.708235 C877.067294,179.915294 923.486118,176.075294 969.566118,176.075294 C1413.65082,176.075294 1775.06259,531.952941 1775.06259,969.374118 C1775.06259,1026.18353 1768.73788,1083.44471 1756.42729,1139.57647 L1752.02259,1159.22824 L1761.17082,1177.18588 C1791.66494,1237.72235 1807.02494,1302.77647 1807.02494,1370.76706 C1807.02494,1611.33176 1608.24847,1807.05882 1363.84376,1807.05882 M1870.72376,1144.54588 C1882.24376,1086.72 1888.00376,1027.87765 1888.00376,969.374118 C1888.00376,469.609412 1475.99435,63.1341176 969.566118,63.1341176 C924.163765,63.1341176 878.535529,66.4094118 833.584941,73.0729412 C749.443765,25.1858824 654.008471,0 556.314353,0 C249.566118,0 -0.0338823529,246.437647 -0.0338823529,549.232941 C-0.0338823529,639.585882 22.6672941,728.696471 65.8108235,808.32 C56.2108235,861.176471 51.3543529,915.162353 51.3543529,969.374118 C51.3543529,1469.13882 463.250824,1875.72706 969.566118,1875.72706 C1019.14729,1875.72706 1069.18024,1871.77412 1118.53553,1863.86824 C1194.54494,1900.68706 1278.912,1920 1363.84376,1920 C1670.47906,1920 1919.96612,1673.56235 1919.96612,1370.76706 C1919.96612,1291.82118 1903.47671,1215.81176 1870.72376,1144.54588 M1364.66824,1315.42588 C1331.12471,1363.2 1281.54353,1401.14824 1217.39294,1428.14118 C1153.58118,1454.68235 1077.23294,1468.23529 990.381176,1468.23529 C886.249412,1468.23529 798.832941,1449.82588 730.729412,1413.34588 C681.938824,1386.91765 641.731765,1350.88941 611.124706,1306.50353 C580.291765,1261.77882 564.705882,1217.28 564.705882,1174.47529 C564.705882,1147.70824 574.870588,1124.55529 595.087059,1105.35529 C614.851765,1086.60706 640.263529,1077.00706 670.644706,1077.00706 C695.604706,1077.00706 717.176471,1084.68706 734.682353,1099.48235 C751.284706,1113.82588 765.628235,1134.83294 777.261176,1162.16471 C790.023529,1191.75529 804.028235,1216.71529 818.823529,1236.59294 C833.167059,1255.56706 853.722353,1271.49176 879.811765,1284.02824 C906.127059,1296.45176 941.477647,1302.88941 985.185882,1302.88941 C1045.15765,1302.88941 1094.4,1290.01412 1131.33176,1264.60235 C1167.47294,1239.64235 1185.09176,1209.82588 1185.09176,1173.34588 C1185.09176,1144.43294 1175.94353,1121.84471 1157.08235,1103.88706 C1137.20471,1085.36471 1111.11529,1070.79529 1079.60471,1060.96941 C1046.62588,1050.69176 1001.78824,1039.51059 946.447059,1027.76471 C871.115294,1011.50118 807.077647,992.188235 756.141176,970.390588 C704.188235,948.141176 662.174118,917.308235 631.567059,878.456471 C600.395294,839.152941 584.583529,789.910588 584.583529,731.971765 C584.583529,676.743529 601.185882,627.049412 633.938824,584.131765 C666.352941,541.44 713.675294,508.348235 774.663529,485.534118 C834.974118,463.284706 906.578824,451.764706 987.670588,451.764706 C1052.38588,451.764706 1109.53412,459.218824 1157.08235,474.24 C1204.85647,489.261176 1245.17647,509.477647 1276.91294,534.437647 C1308.87529,559.510588 1332.59294,586.390588 1347.50118,614.287059 C1362.40941,642.522353 1370.20235,670.644706 1370.20235,697.637647 C1370.20235,723.84 1360.03765,747.557647 1340.38588,768.225882 C1320.50824,789.007059 1295.43529,799.623529 1265.84471,799.623529 C1239.07765,799.623529 1217.95765,793.072941 1203.27529,779.971765 C1189.72235,767.887059 1175.60471,749.025882 1160.01882,721.92 C1141.83529,687.247059 1119.92471,660.028235 1094.85176,640.715294 C1070.45647,622.08 1029.79765,612.592941 973.778824,612.592941 C921.712941,612.592941 879.472941,623.096471 848.075294,643.877647 C817.694118,663.868235 803.011765,686.795294 803.011765,713.901176 C803.011765,730.616471 807.755294,744.508235 817.581176,756.48 C827.858824,769.242353 842.428235,780.310588 860.724706,789.458824 C879.811765,799.284706 899.463529,806.851765 919.115294,812.385882 C939.331765,818.032941 973.214118,826.277647 1019.52,837.12 C1078.24941,849.882353 1132.23529,864 1180.00941,879.472941 C1228.34824,895.058824 1270.24941,914.258824 1304.24471,936.621176 C1338.80471,959.322353 1366.47529,988.574118 1385.90118,1023.58588 C1405.55294,1058.59765 1415.49176,1101.96706 1415.49176,1152.33882 C1415.49176,1212.42353 1398.43765,1267.31294 1364.66824,1315.42588 M1399.68,866.710588 C1407.36,860.498824 1414.81412,853.722353 1421.92941,846.268235 C1462.02353,804.48 1483.14353,753.091765 1483.14353,697.637647 C1483.14353,652.235294 1471.05882,606.494118 1447.34118,561.543529 C1424.75294,519.190588 1390.87059,480.338824 1346.48471,445.552941 C1304.47059,412.348235 1251.95294,385.694118 1190.85176,366.494118 C1132.68706,348.197647 1064.24471,338.823529 987.670588,338.823529 C893.590588,338.823529 808.658824,352.602353 735.585882,379.595294 C654.042353,409.976471 589.778824,455.717647 544.037647,515.576471 C496.037647,578.710588 471.642353,651.557647 471.642353,731.971765 C471.642353,816.112941 495.698824,888.96 543.134118,948.705882 C552.96,961.129412 563.576471,972.988235 575.096471,984.282353 C553.976471,993.995294 534.663529,1007.09647 517.496471,1023.36 C474.465882,1064.24471 451.764706,1116.42353 451.764706,1174.47529 C451.764706,1240.77176 474.127059,1306.72941 518.174118,1370.65412 C559.171765,1430.06118 612.592941,1477.83529 676.969412,1512.62118 C761.901176,1558.13647 867.275294,1581.17647 990.381176,1581.17647 C1092.02824,1581.17647 1183.05882,1564.8 1260.87529,1532.38588 C1345.24235,1496.92235 1411.2,1445.76 1457.16706,1380.25412 C1504.48941,1312.71529 1528.43294,1236.02824 1528.43294,1152.33882 C1528.43294,1082.42824 1513.63765,1020.64941 1484.61176,968.470588 C1462.92706,929.505882 1434.35294,895.397647 1399.68,866.710588" stroke="none" stroke-width="1" fill-rule="evenodd"/>
</svg>

<svg viewBox="0 0 1920 1920" version="1.1" xmlns="http://www.w3.org/2000/svg">
    <path d="M1363.844 1807.059c-73.186 0-145.807-17.958-209.958-51.84l-17.28-9.261-19.2 3.5c-48.903 8.923-98.598 13.328-147.84 13.328-444.085 0-805.27-355.878-805.27-793.412 0-53.76 5.42-107.407 16.15-159.247l4.518-21.459-11.294-18.86c-39.756-66.975-60.763-143.21-60.763-220.575 0-240.565 198.89-436.292 443.407-436.292 83.803 0 165.46 23.153 236.16 67.087l18.184 11.294 21.12-3.614c45.29-7.793 91.708-11.633 137.788-11.633 444.085 0 805.497 355.878 805.497 793.3 0 56.809-6.325 114.07-18.636 170.201l-4.404 19.652 9.148 17.958c30.494 60.536 45.854 125.59 45.854 193.581 0 240.565-198.777 436.292-443.181 436.292m506.88-662.513a897.833 897.833 0 0 0 17.28-175.172c0-499.765-412.01-906.24-918.438-906.24-45.402 0-91.03 3.275-135.981 9.939C749.444 25.186 654.008 0 556.315 0 249.565 0-.035 246.438-.035 549.233c0 90.353 22.701 179.463 65.845 259.087-9.6 52.856-14.457 106.842-14.457 161.054 0 499.765 411.897 906.353 918.212 906.353 49.581 0 99.614-3.953 148.97-11.859 76.009 36.82 160.376 56.132 245.308 56.132 306.635 0 556.122-246.438 556.122-549.233 0-78.946-16.49-154.955-49.242-226.221m-506.056 170.88c-33.543 47.774-83.124 85.722-147.275 112.715-63.812 26.541-140.16 40.094-227.012 40.094-104.132 0-191.548-18.41-259.652-54.89-48.79-26.427-88.997-62.456-119.604-106.841-30.833-44.725-46.42-89.224-46.42-132.029 0-26.767 10.166-49.92 30.382-69.12 19.765-18.748 45.177-28.348 75.558-28.348 24.96 0 46.531 7.68 64.037 22.475 16.603 14.344 30.946 35.35 42.58 62.683 12.762 29.59 26.766 54.55 41.562 74.428 14.343 18.974 34.898 34.899 60.988 47.435 26.315 12.424 61.666 18.861 105.374 18.861 59.972 0 109.214-12.875 146.146-38.287 36.14-24.96 53.76-54.776 53.76-91.256 0-28.913-9.148-51.501-28.01-69.459-19.877-18.522-45.967-33.092-77.477-42.918-32.98-10.277-77.817-21.458-133.158-33.204-75.332-16.264-139.37-35.577-190.306-57.374-51.953-22.25-93.967-53.083-124.574-91.935-31.172-39.303-46.983-88.545-46.983-146.484 0-55.228 16.602-104.923 49.355-147.84 32.414-42.692 79.736-75.784 140.725-98.598 60.31-22.25 131.915-33.77 213.007-33.77 64.715 0 121.863 7.455 169.411 22.476 47.774 15.021 88.094 35.238 119.83 60.198 31.963 25.073 55.68 51.953 70.59 79.85 14.907 28.234 22.7 56.357 22.7 83.35 0 26.202-10.164 49.92-29.816 70.588-19.878 20.781-44.95 31.398-74.541 31.398-26.767 0-47.887-6.551-62.57-19.652-13.553-12.085-27.67-30.946-43.256-58.052-18.184-34.673-40.094-61.892-65.167-81.205-24.396-18.635-65.054-28.122-121.073-28.122-52.066 0-94.306 10.503-125.704 31.285-30.38 19.99-45.063 42.917-45.063 70.023 0 16.715 4.743 30.607 14.57 42.579 10.277 12.762 24.846 23.83 43.143 32.979 19.087 9.826 38.739 17.393 58.39 22.927 20.217 5.647 54.1 13.892 100.405 24.734 58.73 12.762 112.715 26.88 160.49 42.353 48.338 15.586 90.24 34.786 124.235 57.148 34.56 22.701 62.23 51.953 81.656 86.965 19.652 35.012 29.59 78.381 29.59 128.753 0 60.085-17.053 114.974-50.823 163.087m35.012-448.715c7.68-6.212 15.134-12.989 22.25-20.443 40.094-41.788 61.214-93.176 61.214-148.63 0-45.403-12.085-91.144-35.803-136.094-22.588-42.353-56.47-81.205-100.856-115.991-42.014-33.205-94.532-59.859-155.633-79.059-58.165-18.296-126.607-27.67-203.181-27.67-94.08 0-179.012 13.778-252.085 40.771-81.544 30.381-145.807 76.123-191.548 135.981-48 63.135-72.396 135.982-72.396 216.396 0 84.14 24.057 156.988 71.492 216.734a378.74 378.74 0 0 0 31.962 35.576c-21.12 9.713-40.432 22.814-57.6 39.078-43.03 40.885-65.731 93.064-65.731 151.115 0 66.297 22.362 132.254 66.41 196.18 40.997 59.406 94.418 107.18 158.794 141.966 84.932 45.515 190.306 68.555 313.412 68.555 101.647 0 192.678-16.376 270.494-48.79 84.367-35.464 150.325-86.626 196.292-152.132 47.322-67.539 71.266-144.226 71.266-227.915 0-69.91-14.795-131.69-43.821-183.868-21.685-38.965-50.26-73.073-84.932-101.76" stroke="none" stroke-width="1" fill-rule="evenodd"/>
</svg>
